X: 162
T: Erbuliuliu  huangfeng yanshanshan gua
%%abc-version 2.0
%%abcx-abcm2ps-target-version 5.9.1 (29 Sep 2008)
%%abc-creator hum2abc beta
%%abcx-conversion-date 2013/10/02 07:52:29
%%abc-edited-by Helmut Schaffrath
%%humdrum-veritas 3227166257
%%humdrum-veritas-data 3541917227
%%continueall 1
%%barnumbers 0
L: 1/16
M: 2/4
K: G
e2 e d B2 A B [I:setbarnb 1]| 
d6g2 | 
e2 e d B2 B A | 
G6E2 | 
G E G A d2 d B | 
A B G AB4 | 
E G E G A2 G E | 
D2> E2D4 |]  



